X: 6
T: Seven Step, The
Z: ceolachan
S: https://thesession.org/tunes/1307#setting14625
R: barndance
M: 4/4
L: 1/8
K: Dmaj
(3ABc |d2 d2 d2 d2 | c>de>f d2 A2 | f2 f2 f2 f2 | e>fg>f e2 e2 ||
f>ga>f d2 e2 | e>fg>f e2 e2 | e>fe>d c>AB>c | d>ef>g a2 af |
g>ab>g e2 e2 | f>ga>f d2 d2 | e>fe>d c>AB>c | d2 f2 d2 |]
